fs/border_top_bottom_20_regular.svg

<svg viewBox="0 0 20 20" fill="none" xmlns="http://www.w3.org/2000/svg" height="1em" width="1em">
  <path d="M3.07321 5.33837C3.06509 5.36129 3.05857 5.38505 3.05381 5.40954C3.00112 5.68061 3.1821 5.94893 3.45317 6.00162C3.72424 6.05431 3.99256 5.87333 4.04525 5.60226C4.04935 5.58117 4.05203 5.56009 4.05337 5.53913C4.26149 4.65673 5.05406 4 6.00001 4H14C14.946 4 15.7386 4.65676 15.9467 5.53918C15.948 5.56013 15.9507 5.58118 15.9548 5.60226C16.0075 5.87333 16.2758 6.05431 16.5469 6.00162C16.8179 5.94893 16.9989 5.68061 16.9462 5.40954C16.9415 5.38502 16.9349 5.36124 16.9268 5.3383C16.6255 3.99981 15.4295 3 14 3H6.00001C4.57049 3 3.3745 3.99985 3.07321 5.33837ZM3.07321 14.6616C3.06509 14.6387 3.05857 14.615 3.05381 14.5905C3.00112 14.3194 3.1821 14.0511 3.45317 13.9984C3.72424 13.9457 3.99256 14.1267 4.04525 14.3977C4.04935 14.4188 4.05203 14.4399 4.05337 14.4609C4.26149 15.3433 5.05406 16 6.00001 16H14C14.946 16 15.7386 15.3432 15.9467 14.4608C15.948 14.4399 15.9507 14.4188 15.9548 14.3977C16.0075 14.1267 16.2758 13.9457 16.5469 13.9984C16.8179 14.0511 16.9989 14.3194 16.9462 14.5905C16.9415 14.615 16.9349 14.6388 16.9268 14.6617C16.6255 16.0002 15.4295 17 14 17H6.00001C4.57049 17 3.3745 16.0002 3.07321 14.6616ZM16.5 12C16.2239 12 16 11.7761 16 11.5V8.5C16 8.22386 16.2239 8 16.5 8C16.7761 8 17 8.22386 17 8.5V11.5C17 11.7761 16.7761 12 16.5 12ZM3 11.5C3 11.7761 3.22386 12 3.5 12C3.77614 12 4 11.7761 4 11.5V8.5C4 8.22386 3.77614 8 3.5 8C3.22386 8 3 8.22386 3 8.5V11.5Z" fill="#212121"/>
</svg>

<svg viewBox="0 0 20 20" fill="none" xmlns="http://www.w3.org/2000/svg" height="1em" width="1em">
  <path d="M3.073 5.338a.509.509 0 0 0 .38.663.509.509 0 0 0 .6-.462A2 2 0 0 1 6 4h8a2 2 0 0 1 1.947 1.54.509.509 0 0 0 .6.462.509.509 0 0 0 .38-.664A3.001 3.001 0 0 0 14 3H6a3 3 0 0 0-2.927 2.338Zm0 9.324a.509.509 0 0 1 .38-.663.509.509 0 0 1 .6.462A2 2 0 0 0 6 16h8a2 2 0 0 0 1.947-1.54.509.509 0 0 1 .6-.462.509.509 0 0 1 .38.664A3.001 3.001 0 0 1 14 17H6a3 3 0 0 1-2.927-2.338ZM16.5 12a.5.5 0 0 1-.5-.5v-3a.5.5 0 0 1 1 0v3a.5.5 0 0 1-.5.5ZM3 11.5a.5.5 0 0 0 1 0v-3a.5.5 0 0 0-1 0v3Z" fill="#212121"/>
</svg>
